X:44
 T:Dulcie and the Moa
M:c
Q:110
C:Rivers and Cole 
L:1/4
K:G
D E D E |E/F/ F2 z | D E D E |F/G/ G2 z |               
W:Dul-cie  wan-dered      far     a - way,                 in   the bush one        summer's day
A G A G |G/C/ C2 z |G F G F|F/B,/ B,2 z | 
W:Hills she climbed and creeks she crossed,              'til      it  struck  her        she  was   lost.
D E D E |E/F/ F2 z |D E D E |F/G/ G2 z |                       
W:Then she found a             lit  - tle   track,              which she hoped would     lead  her back
 A/B/ A/B/ A/G/ E3 z|D/ E/ F/ E/ D B |G2 z | 
W:Sud-den  - ly     the   bush  - es  stirred.        Out there stepped  a     great  big           bird.
